svgs/duotone/object-exclude.svg

<svg xmlns="http://www.w3.org/2000/svg" viewBox="0 0 512 512"><!--! Font Awesome Pro 6.6.0 by @fontawesome - https://fontawesome.com License - https://fontawesome.com/license (Commercial License) Copyright 2024 Fonticons, Inc. --><defs><style>.fa-secondary{opacity:.4}</style></defs><path class="fa-secondary" d="M224 160c-35.3 0-64 28.7-64 64l0 128 128 0c35.3 0 64-28.7 64-64l0-128-128 0zm80 48l0 96-96 0 0-96 96 0z"/><path class="fa-primary" d="M64 0C28.7 0 0 28.7 0 64L0 288c0 35.3 28.7 64 64 64l96 0 0 96c0 35.3 28.7 64 64 64l224 0c35.3 0 64-28.7 64-64l0-224c0-35.3-28.7-64-64-64l-96 0 0-96c0-35.3-28.7-64-64-64L64 0zM352 160l0 128c0 35.3-28.7 64-64 64l-128 0 0-128c0-35.3 28.7-64 64-64l128 0z"/></svg>

<svg xmlns="http://www.w3.org/2000/svg" viewBox="0 0 512 512"><!--! Font Awesome Pro 6.4.0 by @fontawesome - https://fontawesome.com License - https://fontawesome.com/license (Commercial License) Copyright 2023 Fonticons, Inc. --><defs><style>.fa-secondary{opacity:.4}</style></defs><path class="fa-primary" d="M64 0C28.7 0 0 28.7 0 64V288c0 35.3 28.7 64 64 64h96v96c0 35.3 28.7 64 64 64H448c35.3 0 64-28.7 64-64V224c0-35.3-28.7-64-64-64H352V64c0-35.3-28.7-64-64-64H64zM352 160V288c0 35.3-28.7 64-64 64H160V224c0-35.3 28.7-64 64-64H352z"/><path class="fa-secondary" d="M224 160c-35.3 0-64 28.7-64 64V352H288c35.3 0 64-28.7 64-64V160H224zm80 48v96H208V208h96z"/></svg>
